src/icons/coffee.svg

<?xml version="1.0" encoding="UTF-8"?>
<svg width="512px" height="512px" viewBox="0 0 512 512" version="1.1" xmlns="http://www.w3.org/2000/svg" xmlns:xlink="http://www.w3.org/1999/xlink">
    <!-- Generator: Sketch 62 (91390) - https://sketch.com -->
    <title>coffee</title>
    <desc>Created with Sketch.</desc>
    <g id="coffee" stroke="none" stroke-width="1" fill="none" fill-rule="evenodd">
        <path d="M383.1,250.95 C383.7,245.55 384,240.95 384,237.15 C384,217.55 380.7,217.45 368,217.45 L292.5,217.45 C299.8,205.45 304,193.05 304,180.45 C304,142.55 246.7,124.05 246.7,92.45 C246.7,80.75 251.8,71.15 256,57.55 C229.5,64.55 208.6,91.05 208.6,119.15 C208.6,167.45 264.9,167.85 264.9,203.95 C264.9,208.45 263.5,212.45 262.8,217.45 L206.9,217.45 C207.7,214.45 208.2,211.25 208.2,208.15 C208.2,185.35 169.1,174.25 169.1,155.35 C169.1,148.35 170.1,142.55 172.3,134.35 C159.4,139.45 144,154.35 144,171.15 C144,197.85 175.9,200.45 180.8,217.45 L80,217.45 C67.3,217.45 64,217.55 64,237.15 C64,256.75 71.7,298.45 92.3,348.15 C112.9,397.85 136.7,419.75 153.5,434.35 L153.6,434.15 C158.7,438.75 165.4,441.45 172.8,441.45 L275.2,441.45 C282.6,441.45 289.3,438.75 294.4,434.15 L294.5,434.35 C303.5,426.55 314.5,416.55 325.9,401.45 C330.6,403.45 335.7,405.15 341.3,406.45 C349.7,408.45 358.1,409.45 366.1,409.45 C390.1,409.45 411.7,400.25 426.9,383.65 C440.3,369.05 448,349.25 448,329.45 C448,290.55 420,258.05 383.1,250.95 Z M366.1,377.75 C357.5,377.75 350.5,376.55 344,373.55 C348,365.55 351.9,357.65 355.7,348.45 C365.8,324.05 372.8,301.45 377.3,282.65 C399.3,286.95 416,306.45 416,329.75 C416,352.45 398.8,377.75 366.1,377.75 Z" id="Shape" fill="#000000" fill-rule="nonzero"></path>
    </g>
</svg>

<svg xmlns="http://www.w3.org/2000/svg" width="512" height="512" viewBox="0 0 512 512">
    <path d="M383.1 250.95c.6-5.4.9-10 .9-13.8 0-19.6-3.3-19.7-16-19.7h-75.5c7.3-12 11.5-24.4 11.5-37 0-37.9-57.3-56.4-57.3-88 0-11.7 5.1-21.3 9.3-34.9-26.5 7-47.4 33.5-47.4 61.6 0 48.3 56.3 48.7 56.3 84.8 0 4.5-1.4 8.5-2.1 13.5h-55.9c.8-3 1.3-6.2 1.3-9.3 0-22.8-39.1-33.9-39.1-52.8 0-7 1-12.8 3.2-21-12.9 5.1-28.3 20-28.3 36.8 0 26.7 31.9 29.3 36.8 46.3H80c-12.7 0-16 .1-16 19.7 0 19.6 7.7 61.3 28.3 111s44.4 71.6 61.2 86.2l.1-.2c5.1 4.6 11.8 7.3 19.2 7.3h102.4c7.4 0 14.1-2.7 19.2-7.3l.1.2c9-7.8 20-17.8 31.4-32.9 4.7 2 9.8 3.7 15.4 5 8.4 2 16.8 3 24.8 3 24 0 45.6-9.2 60.8-25.8 13.4-14.6 21.1-34.4 21.1-54.2 0-38.9-28-71.4-64.9-78.5zm-17 126.8c-8.6 0-15.6-1.2-22.1-4.2 4-8 7.9-15.9 11.7-25.1 10.1-24.4 17.1-47 21.6-65.8 22 4.3 38.7 23.8 38.7 47.1 0 22.7-17.2 48-49.9 48z"/>
</svg>
